austria/municipalities/50328.svg

<?xml version="1.0" encoding="UTF-8"?>
<!DOCTYPE svg PUBLIC "-//W3C//DTD SVG 1.1//EN" "http://www.w3.org/Graphics/SVG/1.1/DTD/svg11.dtd">
<svg xmlns="http://www.w3.org/2000/svg" version="1.1" width="159px" height="192px" style="shape-rendering:geometricPrecision; text-rendering:geometricPrecision; image-rendering:optimizeQuality; fill-rule:evenodd; clip-rule:evenodd" xmlns:xlink="http://www.w3.org/1999/xlink">
<g><path style="opacity:1" fill="#060302" d="M -0.5,-0.5 C 52.5,-0.5 105.5,-0.5 158.5,-0.5C 158.5,40.1667 158.5,80.8333 158.5,121.5C 150.184,162.819 125.184,186.152 83.5,191.5C 80.5,191.5 77.5,191.5 74.5,191.5C 33.7607,185.627 8.7607,162.627 -0.5,122.5C -0.5,81.5 -0.5,40.5 -0.5,-0.5 Z"/></g>
<g><path style="opacity:1" fill="#7e3d0f" d="M 56.5,2.5 C 56.5,21.5 56.5,40.5 56.5,59.5C 70.5,59.5 84.5,59.5 98.5,59.5C 98.5,40.5 98.5,21.5 98.5,2.5C 99.497,21.6595 99.8303,40.9928 99.5,60.5C 84.8333,60.5 70.1667,60.5 55.5,60.5C 55.1697,40.9928 55.503,21.6595 56.5,2.5 Z"/></g>
<g><path style="opacity:1" fill="#fe7d20" d="M 56.5,2.5 C 70.5,2.5 84.5,2.5 98.5,2.5C 98.5,21.5 98.5,40.5 98.5,59.5C 84.5,59.5 70.5,59.5 56.5,59.5C 56.5,40.5 56.5,21.5 56.5,2.5 Z"/></g>
<g><path style="opacity:1" fill="#7c0000" d="M 68.5,62.5 C 64.2984,62.1832 60.2984,62.5166 56.5,63.5C 55.9569,63.44 55.6236,63.1067 55.5,62.5C 59.9838,61.1889 64.3171,61.1889 68.5,62.5 Z"/></g>
<g><path style="opacity:1" fill="#767676" d="M 83.5,63.5 C 79.7016,62.5166 75.7016,62.1832 71.5,62.5C 72.7073,61.7614 74.7073,61.4281 77.5,61.5C 79.8333,61.8333 82.1667,62.1667 84.5,62.5C 84.3764,63.1067 84.0431,63.44 83.5,63.5 Z"/></g>
<g><path style="opacity:1" fill="#7c0000" d="M 96.5,63.5 C 93.3752,62.5206 90.0419,62.1872 86.5,62.5C 86.7678,64.099 86.4345,65.4324 85.5,66.5C 85.5,64.8333 85.5,63.1667 85.5,61.5C 89.5546,61.1758 93.5546,61.5091 97.5,62.5C 97.3764,63.1067 97.0431,63.44 96.5,63.5 Z"/></g>
<g><path style="opacity:1" fill="#750000" d="M 112.5,62.5 C 115.962,61.5184 119.629,61.185 123.5,61.5C 123.737,62.791 123.404,63.791 122.5,64.5C 119.663,62.5977 116.329,61.931 112.5,62.5 Z"/></g>
<g><path style="opacity:1" fill="#fa0000" d="M 2.5,61.5 C 6.18174,61.3347 9.84841,61.5014 13.5,62C 14.2106,63.2547 15.044,64.4214 16,65.5C 15.6469,72.8149 15.6469,80.1482 16,87.5C 21.1239,92.7535 23.7906,99.0868 24,106.5C 28.4831,113.271 31.8164,120.604 34,128.5C 38.4141,133.656 42.0807,139.323 45,145.5C 51.0663,151.73 56.5663,158.396 61.5,165.5C 61.1667,165.833 60.8333,166.167 60.5,166.5C 52.9976,163.199 46.1643,164.199 40,169.5C 39.1667,171.5 38.3333,173.5 37.5,175.5C 17.6246,162.099 6.1246,143.432 3,119.5C 2.50005,100.17 2.33338,80.8362 2.5,61.5 Z"/></g>
<g><path style="opacity:1" fill="#f0f0f0" d="M 16.5,61.5 C 20.5,61.5 24.5,61.5 28.5,61.5C 28.3336,69.1739 28.5003,76.8406 29,84.5C 33.6268,97.6803 37.6268,111.014 41,124.5C 43.3333,127.5 45.6667,130.5 48,133.5C 52.1321,142.97 57.1321,151.97 63,160.5C 63.6667,161.167 63.6667,161.833 63,162.5C 57.3333,156.167 51.6667,149.833 46,143.5C 43.9069,137.64 40.5735,132.64 36,128.5C 34.0306,120.229 30.6973,112.562 26,105.5C 25.6667,102.833 25.3333,100.167 25,97.5C 22.653,93.4678 20.3197,89.4678 18,85.5C 17.3347,79.6459 17.5014,73.8126 18.5,68C 18.5177,65.5582 17.851,63.3915 16.5,61.5 Z"/></g>
<g><path style="opacity:1" fill="#ef0000" d="M 30.5,61.5 C 34.3506,60.9709 37.8506,61.6375 41,63.5C 44.0578,72.2956 44.8912,81.2956 43.5,90.5C 47.5029,96.8324 49.5029,103.832 49.5,111.5C 48.2052,120.632 51.0385,128.299 58,134.5C 61.1438,142.419 63.9771,150.419 66.5,158.5C 66.1667,158.833 65.8333,159.167 65.5,159.5C 61.924,154.028 58.0907,148.695 54,143.5C 51.7812,136.806 48.4479,130.806 44,125.5C 40.4558,115.406 37.7892,105.073 36,94.5C 30.593,84.1611 28.7596,73.1611 30.5,61.5 Z"/></g>
<g><path style="opacity:1" fill="#ededed" d="M 42.5,61.5 C 46.5,61.5 50.5,61.5 54.5,61.5C 54.5213,72.3193 54.8547,83.1527 55.5,94C 53.5533,98.0653 51.72,102.232 50,106.5C 50.438,99.7796 48.938,93.6129 45.5,88C 47.2705,78.8474 46.2705,70.0141 42.5,61.5 Z"/></g>
<g><path style="opacity:1" fill="#f50000" d="M 68.5,62.5 C 68.8313,70.509 69.1647,78.509 69.5,86.5C 65.7649,88.1167 62.2649,90.1167 59,92.5C 58.1376,90.913 57.4709,89.2464 57,87.5C 56.5003,79.5069 56.3336,71.5069 56.5,63.5C 60.2984,62.5166 64.2984,62.1832 68.5,62.5 Z"/></g>
<g><path style="opacity:1" fill="#f5f5f5" d="M 71.5,62.5 C 75.7016,62.1832 79.7016,62.5166 83.5,63.5C 82.2572,71.1107 81.5905,78.7774 81.5,86.5C 77.8936,86.2108 74.3936,86.5442 71,87.5C 70.5421,79.1571 70.7088,70.8237 71.5,62.5 Z"/></g>
<g><path style="opacity:1" fill="#f30000" d="M 96.5,63.5 C 94.0836,72.2991 92.5836,81.2991 92,90.5C 89.4125,88.8042 86.5792,87.8042 83.5,87.5C 83.7556,80.4563 84.4223,73.4563 85.5,66.5C 86.4345,65.4324 86.7678,64.099 86.5,62.5C 90.0419,62.1872 93.3752,62.5206 96.5,63.5 Z"/></g>
<g><path style="opacity:1" fill="#efefef" d="M 99.5,61.5 C 102.833,61.5 106.167,61.5 109.5,61.5C 107.982,68.2247 106.149,74.8914 104,81.5C 103.288,87.0277 103.454,92.5277 104.5,98C 104.375,99.6268 103.875,101.127 103,102.5C 101.093,98.5897 98.4267,95.2564 95,92.5C 94.5879,81.8843 96.0879,71.551 99.5,61.5 Z"/></g>
<g><path style="opacity:1" fill="#f20000" d="M 112.5,62.5 C 116.329,61.931 119.663,62.5977 122.5,64.5C 118.51,75.4368 116.343,86.7701 116,98.5C 114.118,102.988 112.785,107.655 112,112.5C 109.391,114.108 108.058,116.441 108,119.5C 107.034,125.13 106.367,130.796 106,136.5C 104.01,139.488 101.677,142.155 99,144.5C 96.9957,151.349 93.1624,157.016 87.5,161.5C 88.0582,158.75 89.5582,156.084 92,153.5C 92.887,146.952 94.5536,140.618 97,134.5C 104.788,126.735 107.288,117.569 104.5,107C 106.816,101.525 107.149,95.858 105.5,90C 106.991,80.536 109.324,71.3694 112.5,62.5 Z"/></g>
<g><path style="opacity:1" fill="#f0f0f0" d="M 126.5,61.5 C 129.833,61.5 133.167,61.5 136.5,61.5C 132.204,73.1125 129.371,85.1125 128,97.5C 123.51,102.632 121.177,108.632 121,115.5C 117.299,121.285 114.966,127.618 114,134.5C 112.118,139.044 109.451,143.044 106,146.5C 105.333,148.5 104.667,150.5 104,152.5C 98.6667,156.5 94,161.167 90,166.5C 89.3333,165.167 89.3333,163.833 90,162.5C 95.6661,158.489 99.3328,153.155 101,146.5C 102.961,143.537 105.294,140.871 108,138.5C 109.073,132.551 109.74,126.551 110,120.5C 113.745,115.852 115.411,110.518 115,104.5C 116.08,102.004 117.414,99.6705 119,97.5C 120.008,88.4518 121.341,79.4518 123,70.5C 123.638,67.2357 124.804,64.2357 126.5,61.5 Z"/></g>
<g><path style="opacity:1" fill="#fc0000" d="M 154.5,117.5 C 152.347,143.811 140.014,163.811 117.5,177.5C 114.074,166.209 106.741,162.043 95.5,165C 94.3333,166.167 93.1667,167.333 92,168.5C 91.8333,168.167 91.6667,167.833 91.5,167.5C 96.1515,162.348 100.985,157.348 106,152.5C 108.22,147.616 111.22,143.282 115,139.5C 116.159,132.166 118.825,125.499 123,119.5C 122.899,111.135 125.565,103.802 131,97.5C 133.515,86.1054 136.349,74.7721 139.5,63.5C 144.405,62.5546 149.405,62.2213 154.5,62.5C 154.5,80.8333 154.5,99.1667 154.5,117.5 Z"/></g>
<g><path style="opacity:1" fill="#7d0000" d="M 154.5,117.5 C 154.5,99.1667 154.5,80.8333 154.5,62.5C 149.405,62.2213 144.405,62.5546 139.5,63.5C 144.396,61.5539 149.729,60.8872 155.5,61.5C 155.83,80.3408 155.497,99.0075 154.5,117.5 Z"/></g>
<g><path style="opacity:1" fill="#ed741e" d="M 70.5,89.5 C 93.7911,88.6182 103.958,99.6182 101,122.5C 92.284,139.294 79.4506,143.461 62.5,135C 53.7227,127.529 50.5561,118.029 53,106.5C 56.6327,98.4577 62.466,92.791 70.5,89.5 Z"/></g>
<g><path style="opacity:1" fill="#0f0503" d="M 74.5,94.5 C 84.8447,93.6941 92.0113,98.0275 96,107.5C 98.3269,128.433 89.1602,136.6 68.5,132C 62.8356,129.668 59.3356,125.501 58,119.5C 56.0411,106.054 61.5411,97.7206 74.5,94.5 Z"/></g>
<g><path style="opacity:1" fill="#ececec" d="M 74.5,97.5 C 77.9298,96.7902 80.2631,97.9569 81.5,101C 80.9605,104.031 80.2939,107.031 79.5,110C 80.9188,114.083 81.4188,118.25 81,122.5C 79.9562,124.715 79.2895,127.048 79,129.5C 77.6439,130.38 76.1439,130.714 74.5,130.5C 76.1508,123.588 75.1508,117.088 71.5,111C 73.4251,106.72 74.4251,102.22 74.5,97.5 Z"/></g>
<g><path style="opacity:1" fill="#f10000" d="M 69.5,99.5 C 70.5,99.5 71.5,99.5 72.5,99.5C 71.3788,103.767 70.3788,108.1 69.5,112.5C 71.6393,116.585 72.9726,120.918 73.5,125.5C 73.3333,126.833 73.1667,128.167 73,129.5C 72.586,129.957 72.086,130.291 71.5,130.5C 66.4686,127.334 64.302,122.667 65,116.5C 63.5584,113.95 62.3917,111.284 61.5,108.5C 63.5044,104.834 66.1711,101.834 69.5,99.5 Z"/></g>
<g><path style="opacity:1" fill="#e90001" d="M 84.5,100.5 C 87.8194,101.819 90.1528,104.153 91.5,107.5C 88.9196,113.468 87.7529,119.801 88,126.5C 86.0266,127.64 84.1933,128.973 82.5,130.5C 81.3973,126.759 81.7306,123.092 83.5,119.5C 82.8333,116.5 82.1667,113.5 81.5,110.5C 82.1957,107.045 83.1957,103.712 84.5,100.5 Z"/></g>
<g><path style="opacity:1" fill="#d4d4d4" d="M 92.5,109.5 C 93.8329,114.196 93.3329,118.863 91,123.5C 90.0565,122.737 89.5565,121.737 89.5,120.5C 90.3485,116.771 91.3485,113.104 92.5,109.5 Z"/></g>
<g><path style="opacity:1" fill="#c9c9c9" d="M 60.5,113.5 C 62.6378,116.087 63.4711,119.087 63,122.5C 61.097,119.829 60.2637,116.829 60.5,113.5 Z"/></g>
<g><path style="opacity:1" fill="#fbfbfb" d="M -0.5,122.5 C 8.7607,162.627 33.7607,185.627 74.5,191.5C 49.5,191.5 24.5,191.5 -0.5,191.5C -0.5,168.5 -0.5,145.5 -0.5,122.5 Z"/></g>
<g><path style="opacity:1" fill="#fbfbfb" d="M 158.5,121.5 C 158.5,144.833 158.5,168.167 158.5,191.5C 133.5,191.5 108.5,191.5 83.5,191.5C 125.184,186.152 150.184,162.819 158.5,121.5 Z"/></g>
<g><path style="opacity:1" fill="#dedede" d="M 92.5,137.5 C 92.9453,145.5 90.612,152.833 85.5,159.5C 85.1667,158.833 84.8333,158.167 84.5,157.5C 86.1117,153.942 87.445,150.275 88.5,146.5C 87.1219,142.302 88.4552,139.302 92.5,137.5 Z"/></g>
<g><path style="opacity:1" fill="#dddddd" d="M 61.5,139.5 C 62.3132,138.347 63.3132,138.347 64.5,139.5C 67.3679,144.501 69.3679,149.835 70.5,155.5C 70.1667,156.5 69.5,157.167 68.5,157.5C 66.6565,151.159 64.3231,145.159 61.5,139.5 Z"/></g>
<g><path style="opacity:1" fill="#ea0001" d="M 68.5,141.5 C 69.9305,141.421 71.2638,141.754 72.5,142.5C 73.8333,146.833 73.8333,151.167 72.5,155.5C 71.1614,150.809 69.8281,146.142 68.5,141.5 Z"/></g>
<g><path style="opacity:1" fill="#d90002" d="M 85.5,140.5 C 87.1929,145.881 86.1929,150.881 82.5,155.5C 81.675,156.386 80.675,156.719 79.5,156.5C 79.5,151.833 79.5,147.167 79.5,142.5C 81.7857,142.405 83.7857,141.738 85.5,140.5 Z"/></g>
<g><path style="opacity:1" fill="#c9c9c9" d="M 75.5,142.5 C 76.5,142.5 77.5,142.5 78.5,142.5C 78.8256,146.884 78.4922,151.217 77.5,155.5C 76.8076,154.975 76.3076,154.308 76,153.5C 75.5014,149.848 75.3347,146.182 75.5,142.5 Z"/></g>
<g><path style="opacity:1" fill="#1ed700" d="M 70.5,158.5 C 75.1943,157.896 79.5276,158.729 83.5,161C 86.3448,164.864 88.6781,169.03 90.5,173.5C 98.1259,162.968 105.626,162.968 113,173.5C 113.814,175.902 113.647,178.235 112.5,180.5C 88.8014,191.617 65.4681,190.95 42.5,178.5C 41.0584,175.213 41.7251,172.38 44.5,170C 51.6804,164.732 57.5138,165.898 62,173.5C 63,170.5 64,167.5 65,164.5C 67.0396,162.63 68.8729,160.63 70.5,158.5 Z"/></g>
<g><path style="opacity:1" fill="#102205" d="M 73.5,161.5 C 80.0883,160.503 84.0883,163.503 85.5,170.5C 85.1667,171.5 84.8333,172.5 84.5,173.5C 83.5979,166.932 79.9313,162.932 73.5,161.5 Z"/></g>
<g><path style="opacity:1" fill="#0c1903" d="M 77.5,165.5 C 79.9137,166.406 80.747,168.072 80,170.5C 78.117,169.347 77.2837,167.681 77.5,165.5 Z"/></g>
<g><path style="opacity:1" fill="#050f00" d="M 99.5,168.5 C 105.9,166.451 109.4,168.785 110,175.5C 107.907,170.884 104.407,168.551 99.5,168.5 Z"/></g>
<g><path style="opacity:1" fill="#040c00" d="M 50.5,169.5 C 56.6437,167.461 59.4771,169.794 59,176.5C 57.8362,174.351 56.6695,172.185 55.5,170C 53.8659,169.506 52.1992,169.34 50.5,169.5 Z"/></g>
<g><path style="opacity:1" fill="#051000" d="M 52.5,170.5 C 54.3628,170.846 55.1961,171.846 55,173.5C 53.583,172.922 52.7496,171.922 52.5,170.5 Z"/></g>
<g><path style="opacity:1" fill="#081501" d="M 103.5,172.5 C 105.496,171.312 106.329,171.979 106,174.5C 105.292,173.619 104.458,172.953 103.5,172.5 Z"/></g>
</svg>

<svg xmlns="http://www.w3.org/2000/svg" width="159" height="192" style="shape-rendering:geometricPrecision;text-rendering:geometricPrecision;image-rendering:optimizeQuality;fill-rule:evenodd;clip-rule:evenodd"><path style="opacity:1" fill="#060302" d="M-.5-.5h159v122c-8.316 41.319-33.316 64.652-75 70h-9c-40.74-5.873-65.74-28.873-75-69V-.5z"/><path style="opacity:1" fill="#7e3d0f" d="M56.5 2.5v57h42v-57a841.634 841.634 0 0 1 1 58h-44c-.33-19.507.003-38.84 1-58z"/><path style="opacity:1" fill="#fe7d20" d="M56.5 2.5h42v57h-42v-57z"/><path style="opacity:1" fill="#7c0000" d="M68.5 62.5c-4.202-.317-8.202.017-12 1-.543-.06-.876-.393-1-1 4.484-1.311 8.817-1.311 13 0z"/><path style="opacity:1" fill="#767676" d="M83.5 63.5c-3.798-.983-7.798-1.317-12-1 1.207-.739 3.207-1.072 6-1l7 1c-.124.607-.457.94-1 1z"/><path style="opacity:1" fill="#7c0000" d="M96.5 63.5c-3.125-.98-6.458-1.313-10-1 .268 1.599-.066 2.932-1 4v-5c4.055-.324 8.055.01 12 1-.124.607-.457.94-1 1z"/><path style="opacity:1" fill="#750000" d="M112.5 62.5c3.462-.982 7.129-1.315 11-1 .237 1.291-.096 2.291-1 3-2.837-1.902-6.171-2.569-10-2z"/><path style="opacity:1" fill="#fa0000" d="M2.5 61.5a60.94 60.94 0 0 1 11 .5 20.473 20.473 0 0 0 2.5 3.5 228.585 228.585 0 0 0 0 22c5.124 5.254 7.79 11.587 8 19 4.483 6.771 7.816 14.104 10 22a75.86 75.86 0 0 1 11 17 156.985 156.985 0 0 1 16.5 20l-1 1c-7.502-3.301-14.336-2.301-20.5 3l-2.5 6c-19.875-13.401-31.375-32.068-34.5-56-.5-19.33-.667-38.664-.5-58z"/><path style="opacity:1" fill="#f0f0f0" d="M16.5 61.5h12c-.166 7.674 0 15.34.5 23a451.386 451.386 0 0 1 12 40l7 9a161.475 161.475 0 0 0 15 27c.667.667.667 1.333 0 2l-17-19c-2.093-5.86-5.426-10.86-10-15a70.83 70.83 0 0 0-10-23l-1-8c-2.347-4.032-4.68-8.032-7-12a61.695 61.695 0 0 1 .5-17.5c.018-2.442-.649-4.608-2-6.5z"/><path style="opacity:1" fill="#ef0000" d="M30.5 61.5c3.85-.53 7.35.138 10.5 2 3.058 8.796 3.891 17.796 2.5 27 4.003 6.332 6.003 13.332 6 21-1.295 9.132 1.538 16.799 8.5 23a338.087 338.087 0 0 1 8.5 24l-1 1a223.389 223.389 0 0 0-11.5-16c-2.219-6.694-5.552-12.694-10-18a188.171 188.171 0 0 1-8-31c-5.407-10.339-7.24-21.339-5.5-33z"/><path style="opacity:1" fill="#ededed" d="M42.5 61.5h12c.021 10.82.355 21.653 1 32.5a215.056 215.056 0 0 0-5.5 12.5c.438-6.72-1.062-12.887-4.5-18.5 1.77-9.153.77-17.986-3-26.5z"/><path style="opacity:1" fill="#f50000" d="M68.5 62.5c.331 8.009.665 16.009 1 24a54.403 54.403 0 0 0-10.5 6 22.948 22.948 0 0 1-2-5c-.5-7.993-.666-15.993-.5-24 3.798-.983 7.798-1.317 12-1z"/><path style="opacity:1" fill="#f5f5f5" d="M71.5 62.5c4.202-.317 8.202.017 12 1a153.687 153.687 0 0 0-2 23c-3.606-.29-7.106.044-10.5 1a167.07 167.07 0 0 1 .5-25z"/><path style="opacity:1" fill="#f30000" d="M96.5 63.5c-2.416 8.8-3.916 17.8-4.5 27a18.627 18.627 0 0 0-8.5-3c.256-7.044.922-14.044 2-21 .934-1.068 1.268-2.401 1-4 3.542-.313 6.875.02 10 1z"/><path style="opacity:1" fill="#efefef" d="M99.5 61.5h10a224.489 224.489 0 0 1-5.5 20 51.973 51.973 0 0 0 .5 16.5 9.62 9.62 0 0 1-1.5 4.5c-1.907-3.91-4.573-7.244-8-10-.412-10.616 1.088-20.949 4.5-31z"/><path style="opacity:1" fill="#f20000" d="M112.5 62.5c3.829-.569 7.163.098 10 2-3.99 10.937-6.157 22.27-6.5 34a61.512 61.512 0 0 0-4 14c-2.609 1.608-3.942 3.941-4 7a161.935 161.935 0 0 0-2 17 40.228 40.228 0 0 1-7 8c-2.004 6.849-5.838 12.516-11.5 17 .558-2.75 2.058-5.416 4.5-8a79.85 79.85 0 0 1 5-19c7.788-7.765 10.288-16.931 7.5-27.5 2.316-5.475 2.649-11.142 1-17a151.16 151.16 0 0 1 7-27.5z"/><path style="opacity:1" fill="#f0f0f0" d="M126.5 61.5h10a151.347 151.347 0 0 0-8.5 36c-4.49 5.132-6.823 11.132-7 18-3.701 5.785-6.034 12.118-7 19a36.677 36.677 0 0 1-8 12l-2 6c-5.333 4-10 8.667-14 14-.667-1.333-.667-2.667 0-4 5.666-4.011 9.333-9.345 11-16a39.806 39.806 0 0 1 7-8 133.602 133.602 0 0 0 2-18c3.745-4.648 5.411-9.982 5-16a36.174 36.174 0 0 1 4-7 377.473 377.473 0 0 1 4-27c.638-3.264 1.804-6.264 3.5-9z"/><path style="opacity:1" fill="#fc0000" d="M154.5 117.5c-2.153 26.311-14.486 46.311-37 60-3.426-11.291-10.759-15.457-22-12.5l-3.5 3.5-.5-1a307.053 307.053 0 0 1 14.5-15 43.99 43.99 0 0 1 9-13c1.159-7.334 3.825-14.001 8-20-.101-8.365 2.565-15.698 8-22a633.186 633.186 0 0 1 8.5-34 61.276 61.276 0 0 1 15-1v55z"/><path style="opacity:1" fill="#7d0000" d="M154.5 117.5v-55a61.276 61.276 0 0 0-15 1c4.896-1.946 10.229-2.613 16-2 .33 18.84-.003 37.507-1 56z"/><path style="opacity:1" fill="#ed741e" d="M70.5 89.5c23.291-.882 33.458 10.118 30.5 33-8.716 16.794-21.55 20.961-38.5 12.5-8.777-7.471-11.944-16.971-9.5-28.5 3.633-8.042 9.466-13.709 17.5-17z"/><path style="opacity:1" fill="#0f0503" d="M74.5 94.5c10.345-.806 17.511 3.528 21.5 13 2.327 20.933-6.84 29.1-27.5 24.5-5.664-2.332-9.164-6.499-10.5-12.5-1.959-13.446 3.541-21.78 16.5-25z"/><path style="opacity:1" fill="#ececec" d="M74.5 97.5c3.43-.71 5.763.457 7 3.5a108.278 108.278 0 0 1-2 9c1.419 4.083 1.919 8.25 1.5 12.5a22.5 22.5 0 0 0-2 7c-1.356.88-2.856 1.214-4.5 1 1.65-6.912.65-13.412-3-19.5a33.881 33.881 0 0 0 3-13.5z"/><path style="opacity:1" fill="#f10000" d="M69.5 99.5h3a223.02 223.02 0 0 0-3 13 36.875 36.875 0 0 1 4 13l-.5 4a3.647 3.647 0 0 1-1.5 1c-5.031-3.166-7.198-7.833-6.5-14a42.644 42.644 0 0 1-3.5-8c2.004-3.666 4.671-6.666 8-9z"/><path style="opacity:1" fill="#e90001" d="M84.5 100.5c3.32 1.319 5.653 3.653 7 7-2.58 5.968-3.747 12.301-3.5 19a32.36 32.36 0 0 0-5.5 4c-1.103-3.741-.77-7.408 1-11l-2-9a55.783 55.783 0 0 1 3-10z"/><path style="opacity:1" fill="#d4d4d4" d="M92.5 109.5c1.333 4.696.833 9.363-1.5 14-.944-.763-1.444-1.763-1.5-3a133.306 133.306 0 0 1 3-11z"/><path style="opacity:1" fill="#c9c9c9" d="M60.5 113.5c2.138 2.587 2.971 5.587 2.5 9-1.903-2.671-2.736-5.671-2.5-9z"/><path style="opacity:1" fill="#fbfbfb" d="M-.5 122.5c9.26 40.127 34.26 63.127 75 69h-75v-69zM158.5 121.5v70h-75c41.684-5.348 66.684-28.681 75-70z"/><path style="opacity:1" fill="#dedede" d="M92.5 137.5c.445 8-1.888 15.333-7 22l-1-2a76.562 76.562 0 0 0 4-11c-1.378-4.198-.045-7.198 4-9z"/><path style="opacity:1" fill="#ddd" d="M61.5 139.5c.813-1.153 1.813-1.153 3 0a52.723 52.723 0 0 1 6 16c-.333 1-1 1.667-2 2-1.844-6.341-4.177-12.341-7-18z"/><path style="opacity:1" fill="#ea0001" d="M68.5 141.5a6.845 6.845 0 0 1 4 1c1.333 4.333 1.333 8.667 0 13-1.339-4.691-2.672-9.358-4-14z"/><path style="opacity:1" fill="#d90002" d="M85.5 140.5c1.693 5.381.693 10.381-3 15-.825.886-1.825 1.219-3 1v-14c2.286-.095 4.286-.762 6-2z"/><path style="opacity:1" fill="#c9c9c9" d="M75.5 142.5h3a43.123 43.123 0 0 1-1 13 4.451 4.451 0 0 1-1.5-2 60.94 60.94 0 0 1-.5-11z"/><path style="opacity:1" fill="#1ed700" d="M70.5 158.5c4.694-.604 9.028.229 13 2.5a57.784 57.784 0 0 1 7 12.5c7.626-10.532 15.126-10.532 22.5 0 .814 2.402.647 4.735-.5 7-23.699 11.117-47.032 10.45-70-2-1.442-3.287-.775-6.12 2-8.5 7.18-5.268 13.014-4.102 17.5 3.5l3-9a46.117 46.117 0 0 0 5.5-6z"/><path style="opacity:1" fill="#102205" d="M73.5 161.5c6.588-.997 10.588 2.003 12 9l-1 3c-.902-6.568-4.569-10.568-11-12z"/><path style="opacity:1" fill="#0c1903" d="M77.5 165.5c2.414.906 3.247 2.572 2.5 5-1.883-1.153-2.716-2.819-2.5-5z"/><path style="opacity:1" fill="#050f00" d="M99.5 168.5c6.4-2.049 9.9.285 10.5 7-2.093-4.616-5.593-6.949-10.5-7z"/><path style="opacity:1" fill="#040c00" d="M50.5 169.5c6.144-2.039 8.977.294 8.5 7-1.164-2.149-2.33-4.315-3.5-6.5a12.93 12.93 0 0 0-5-.5z"/><path style="opacity:1" fill="#051000" d="M52.5 170.5c1.863.346 2.696 1.346 2.5 3-1.417-.578-2.25-1.578-2.5-3z"/><path style="opacity:1" fill="#081501" d="M103.5 172.5c1.996-1.188 2.829-.521 2.5 2-.708-.881-1.542-1.547-2.5-2z"/></svg>
